assets/icons/qvision/filter_drama.svg

<svg xmlns="http://www.w3.org/2000/svg" height="24" viewBox="0 0 24 24" width="24"><path d="M0 0h24v24H0z" fill="none"/><path d="M19.35 10.04C18.67 6.59 15.64 4 12 4 9.11 4 6.61 5.64 5.36 8.04 2.35 8.36 0 10.9 0 14c0 3.31 2.69 6 6 6h13c2.76 0 5-2.24 5-5 0-2.64-2.05-4.78-4.65-4.96zM19 18H6c-2.21 0-4-1.79-4-4s1.79-4 4-4 4 1.79 4 4h2c0-2.76-1.86-5.08-4.4-5.78C8.61 6.88 10.2 6 12 6c3.03 0 5.5 2.47 5.5 5.5v.5H19c1.65 0 3 1.35 3 3s-1.35 3-3 3z"/></svg>

<svg width="24" height="24" viewBox="0 0 24 24" fill="none" xmlns="http://www.w3.org/2000/svg">
<g clip-path="url(#clip0_147_3440)">
<path d="M19.35 10.04C18.67 6.59 15.64 4 12 4C9.11 4 6.61 5.64 5.36 8.04C2.35 8.36 0 10.9 0 14C0 17.31 2.69 20 6 20H19C21.76 20 24 17.76 24 15C24 12.36 21.95 10.22 19.35 10.04ZM19 18H6C3.79 18 2 16.21 2 14C2 11.79 3.79 10 6 10C8.21 10 10 11.79 10 14H12C12 11.24 10.14 8.92 7.6 8.22C8.61 6.88 10.2 6 12 6C15.03 6 17.5 8.47 17.5 11.5V12H19C20.65 12 22 13.35 22 15C22 16.65 20.65 18 19 18Z" fill="#323232"/>
</g>
<defs>
<clipPath id="clip0_147_3440">
<rect width="24" height="24" fill="white"/>
</clipPath>
</defs>
</svg>
